X: 1
T: Lacy Charlotte Campbell
C: Robert Mackintosh
B: Hunter Collection
R: reel
Z: 2005 John Chambers <jc:trillian.mit.edu>
M: C|
L: 1/8
K: Bb
F | "Bb"B2Bf     dBfB | "Cm"edcB "F7"AFcA | "Bb"B2bf     dBfB | "F7"AFec "Bb"dBB :|
d | "Bb"f2db "Eb"g2Ee | "F7"c2Aa "Dm"f2Dd | "Gm"B2Gg "Cm"edcB | "F7"AFec "Bb"dBB ||
d | "Bb"fdba "Eb"gfed | "F7"cAag "D7"fedc | "Gm"BGgf "Cm"edcB | "F7"AFec "Bb"dBB |]
